img/new/letters.svg

<svg width="857" height="94" viewBox="0 0 857 94" fill="none" xmlns="http://www.w3.org/2000/svg">
    <path d="M168.586 30.0135C168.586 35.8442 130.846 40.5853 84.2987 40.5853C70.9417 40.5853 58.3068 40.1904 47.083 39.4914C47.1596 40.8205 47.2033 42.1846 47.2033 43.5619C47.2033 62.2026 39.7974 77.324 30.663 77.324C21.5286 77.324 14.1227 62.2069 14.1227 43.5663C14.1164 41.0175 14.2625 38.4707 14.5603 35.9394C5.37122 34.2634 0 32.2167 0 30.0135C0 27.5948 6.45422 25.3676 17.317 23.5965C20.3363 15.2268 25.1933 9.79211 30.663 9.79211C35.5091 9.79211 39.863 14.0421 42.8823 20.8069C55.1125 19.9318 69.2461 19.4417 84.2987 19.4417C130.846 19.4417 168.586 24.1708 168.586 30.0135Z" fill="black"/>
    <path d="M167.056 49.2942L56.7732 49.2942C55.9292 49.2942 55.245 49.9784 55.245 50.8224L55.245 72.8816C55.245 73.7256 55.9292 74.4098 56.7732 74.4098L167.056 74.4098C167.9 74.4098 168.584 73.7256 168.584 72.8816L168.584 50.8224C168.584 49.9784 167.9 49.2942 167.056 49.2942Z" fill="black"/>
        <path d="M505.207 83.3319C514.472 83.3319 521.982 69.5551 521.982 52.5606C521.982 35.5661 514.472 21.7893 505.207 21.7893C495.943 21.7893 488.433 35.5661 488.433 52.5606C488.433 69.5551 495.943 83.3319 505.207 83.3319Z" fill="black"/>

    <path d="M581.177 46.9214C611.996 46.9214 636.98 41.8939 636.98 35.6921C636.98 29.4904 611.996 24.4629 581.177 24.4629C550.358 24.4629 525.375 29.4904 525.375 35.6921C525.375 41.8939 550.358 46.9214 581.177 46.9214Z" fill="black"/>
    <path d="M587.317 84.1961C621.526 84.1961 649.258 76.7736 649.258 67.6175C649.258 58.4614 621.526 51.0389 587.317 51.0389C553.107 51.0389 525.375 58.4614 525.375 67.6175C525.375 76.7736 553.107 84.1961 587.317 84.1961Z" fill="black"/>

    <path d="M819.771 86.9386L672.621 86.9386C670.538 86.9383 668.541 86.1107 667.069 84.638C665.596 83.1652 664.769 81.1679 664.769 79.0852L664.769 36.4217C664.769 34.3392 665.596 32.3419 667.069 30.8693C668.541 29.3967 670.538 28.5695 672.621 28.5695L765.584 28.5695C769.621 28.5692 773.619 29.3643 777.349 30.9092C781.078 32.4542 784.468 34.7188 787.322 37.5736L824.724 74.9753C825.707 75.954 826.377 77.2027 826.65 78.563C826.922 79.9234 826.784 81.3339 826.253 82.6157C825.723 83.8975 824.823 84.9927 823.669 85.7624C822.515 86.532 821.158 86.9414 819.771 86.9386Z" fill="black"/>
    <path d="M810.403 19.1827C806.819 15.5992 801.009 15.5992 797.426 19.1827C793.842 22.7661 793.842 28.576 797.426 32.1594L836.536 71.2698C840.12 74.8532 845.93 74.8532 849.513 71.2698C853.096 67.6864 853.096 61.8765 849.513 58.2931L810.403 19.1827Z" fill="black"/>

    <path d="M340.455 44.4392L340.455 69.9038C340.453 71.3355 339.883 72.7079 338.87 73.7192C337.856 74.7306 336.483 75.298 335.051 75.2969L192.982 75.2969C192.737 75.2953 192.503 75.2022 192.324 75.036C192.145 74.8697 192.035 74.6424 192.016 74.3991C191.997 74.1557 192.07 73.9139 192.22 73.7217C192.37 73.5294 192.588 73.4005 192.828 73.3606L318.609 53.1775C324.888 52.1164 326.748 50.8474 326.595 48.4627C326.354 44.6558 320.436 44.437 307.637 44.437L183.204 44.437C182.742 44.437 182.299 44.2535 181.972 43.9269C181.646 43.6003 181.462 43.1573 181.462 42.6954L181.462 19.3891C181.462 19.1605 181.507 18.9341 181.595 18.7228C181.683 18.5116 181.811 18.3197 181.973 18.1581C182.134 17.9964 182.326 17.8683 182.538 17.7809C182.749 17.6935 182.975 17.6485 183.204 17.6487L196.416 17.6487C196.618 17.6494 196.814 17.7169 196.973 17.8407C197.132 17.9645 197.245 18.1376 197.295 18.3328C197.345 18.528 197.329 18.7343 197.249 18.9193C197.169 19.1043 197.03 19.2577 196.854 19.3552C189.35 23.5341 185.204 27.7895 185.904 31.3994C187.545 39.9431 215.429 41.759 248.182 35.4689C264.055 32.4168 278.155 28.0301 288.285 23.3371C296.232 19.622 304.892 17.6809 313.664 17.6487C317.183 17.6472 320.667 18.3392 323.918 19.6851C327.169 21.0309 330.123 23.0042 332.611 25.4922C335.099 27.9802 337.073 30.9342 338.419 34.1852C339.764 37.4362 340.456 40.9206 340.455 44.4392Z" fill="black"/>

    <path d="M386.917 83.9062C383.295 27.0599 364.718 13.0728 360.575 48.4967C360.558 48.6446 360.489 48.7818 360.38 48.8836C360.272 48.9855 360.13 49.0456 359.982 49.053C359.833 49.0605 359.686 49.015 359.568 48.9245C359.45 48.834 359.367 48.7045 359.335 48.559C353.394 22.1 351.065 7.62832 380.328 0.0517266C380.551 -0.00821355 380.785 -0.0161779 381.011 0.0284472C381.238 0.0730723 381.451 0.169096 381.635 0.309122C381.818 0.449148 381.967 0.62944 382.07 0.836111C382.173 1.04278 382.227 1.27032 382.228 1.50119L382.228 6.19746C382.23 7.16732 382.534 8.11258 383.097 8.90241C383.659 9.69223 384.454 10.2876 385.37 10.606C433.269 27.3925 416.511 51.3234 392.335 85.4509C391.977 85.9549 391.472 86.3356 390.889 86.5405C390.306 86.7454 389.674 86.7644 389.08 86.595C388.485 86.4256 387.958 86.076 387.571 85.5945C387.183 85.1129 386.955 84.5231 386.917 83.9062Z" fill="black"/>
    <path d="M451.189 44.6416L424.935 44.6416C424.575 44.6413 424.229 44.498 423.975 44.2433C423.72 43.9885 423.577 43.6431 423.577 43.2829V36.3911C426.629 36.3911 429.555 35.1789 431.713 33.0211C433.871 30.8633 435.083 27.9367 435.083 24.8851L451.185 24.8851C451.545 24.8851 451.89 25.0282 452.145 25.2828C452.399 25.5374 452.542 25.8827 452.542 26.2427L452.542 43.2862C452.541 43.645 452.399 43.989 452.145 44.2429C451.892 44.4968 451.548 44.6402 451.189 44.6416Z" fill="black"/>
    <path d="M457.384 60.1229C474.601 71.3905 481.181 91.5123 480.108 93.151C479.035 94.7897 464.208 86.9801 446.99 75.7082C429.773 64.4363 416.688 53.9695 417.756 52.3319C418.824 50.6943 440.165 48.851 457.384 60.1229Z" fill="black"/>

    <g id='letters-hover'>
        <path d="M52.4869 8H57L56.8284 8.79741H53.2399L52.7824 10.9795H54.1978C54.8967 10.9795 55.3908 11.0321 55.6799 11.1371C55.969 11.239 56.2105 11.422 56.4043 11.6862C56.6013 11.9472 56.6998 12.2719 56.6998 12.6603C56.6998 13.1251 56.5631 13.5516 56.2899 13.94C56.0199 14.3283 55.6878 14.6021 55.2939 14.7613C54.8999 14.9204 54.2645 15 53.3876 15H51L52.4869 8ZM52.1009 14.2074H52.9206C53.7434 14.2074 54.3296 14.1612 54.6791 14.0689C55.0318 13.9734 55.3002 13.7967 55.4845 13.5389C55.672 13.2779 55.7657 12.9993 55.7657 12.7033C55.7657 12.4836 55.7037 12.299 55.5798 12.1494C55.4591 11.9966 55.2923 11.8963 55.0794 11.8486C54.8697 11.7976 54.5346 11.7722 54.0739 11.7722H52.6108L52.1009 14.2074Z" fill="black"/>
        <path d="M208 26H208.904L210.47 30.362L213.045 26H214L210.442 31.86C210.216 32.2306 209.995 32.5132 209.781 32.7079C209.57 32.9026 209.321 33 209.033 33C208.895 33 208.643 32.978 208.275 32.9341L208.028 32.9058L208.188 32.1097C208.641 32.1851 208.888 32.2227 208.927 32.2227C209.178 32.2227 209.449 31.9825 209.74 31.502L209.882 31.2665L208 26Z" fill="black"/>
        <path d="M410.209 73.0521H410.971L410.441 76.1137C410.673 76.1137 410.862 76.0758 411.009 76C411.156 75.921 411.311 75.7662 411.473 75.5355C411.635 75.3049 411.803 75.0047 411.975 74.6351C412.251 74.0379 412.451 73.6556 412.574 73.4882C412.7 73.3175 412.852 73.1943 413.03 73.1185C413.208 73.0395 413.383 73 413.556 73C413.579 73 413.727 73.0126 414 73.0379L413.869 73.8104C413.843 73.8104 413.795 73.8057 413.726 73.7962C413.62 73.7804 413.549 73.7725 413.513 73.7725C413.379 73.7725 413.261 73.8341 413.158 73.9573C413.052 74.0806 412.919 74.3081 412.76 74.6398C412.448 75.2907 412.197 75.7362 412.006 75.9763C411.818 76.2133 411.594 76.3697 411.334 76.4455C411.718 76.6256 412.058 77.1611 412.354 78.0521L412.995 80H412.165L411.628 78.3744C411.414 77.7299 411.222 77.3002 411.052 77.0853C410.882 76.8673 410.641 76.7504 410.329 76.7346L409.761 80H409L410.209 73.0521Z" fill="black"/>
        <path d="M579 19L580.226 12H582.039C582.369 12 582.614 12.0159 582.774 12.0477C583.035 12.1019 583.255 12.1974 583.433 12.3342C583.614 12.4679 583.754 12.6526 583.852 12.8881C583.951 13.1205 584 13.3784 584 13.6617C584 14.0468 583.911 14.3859 583.732 14.6787C583.557 14.9716 583.286 15.1944 582.922 15.3472C583.239 15.4714 583.476 15.6592 583.633 15.9106C583.79 16.1589 583.868 16.4502 583.868 16.7844C583.868 17.1696 583.775 17.5389 583.589 17.8922C583.405 18.2456 583.16 18.5193 582.854 18.7135C582.55 18.9045 582.211 19 581.835 19H579ZM580.486 14.9891H581.672C582.239 14.9891 582.646 14.8809 582.894 14.6644C583.144 14.4479 583.269 14.1328 583.269 13.719C583.269 13.5216 583.231 13.3513 583.153 13.208C583.076 13.0648 582.972 12.9613 582.842 12.8977C582.714 12.8308 582.472 12.7974 582.115 12.7974H580.869L580.486 14.9891ZM579.923 18.2074H581.256C581.61 18.2074 581.849 18.193 581.971 18.1644C582.219 18.1135 582.42 18.0275 582.574 17.9065C582.729 17.7824 582.85 17.6201 582.938 17.4195C583.026 17.219 583.069 17.0089 583.069 16.7892C583.069 16.4613 582.983 16.2131 582.81 16.0443C582.64 15.8724 582.313 15.7865 581.831 15.7865H580.346L579.923 18.2074Z" fill="black"/>
        <path d="M731.133 16H732L730.613 23H729.747L731.133 16ZM725.387 16H726.249L725.662 18.9795H726.982C727.634 18.9795 728.095 19.0321 728.364 19.1371C728.634 19.239 728.859 19.422 729.04 19.6862C729.224 19.9472 729.316 20.2719 729.316 20.6603C729.316 21.1251 729.188 21.5516 728.933 21.94C728.681 22.3283 728.372 22.6021 728.004 22.7613C727.637 22.9204 727.044 23 726.227 23H724L725.387 16ZM725.027 22.2074H725.791C726.559 22.2074 727.105 22.1612 727.431 22.0689C727.76 21.9734 728.01 21.7967 728.182 21.5389C728.357 21.2779 728.444 20.9993 728.444 20.7033C728.444 20.4836 728.387 20.299 728.271 20.1494C728.159 19.9966 728.003 19.8963 727.804 19.8486C727.609 19.7976 727.296 19.7722 726.867 19.7722H725.502L725.027 22.2074Z" fill="black"/>
    </g>
</svg>

<?xml version="1.0" encoding="utf-8"?>
<!-- Generator: Adobe Illustrator 23.1.0, SVG Export Plug-In . SVG Version: 6.00 Build 0)  -->
<svg version="1.1" id="Layer_1" xmlns="http://www.w3.org/2000/svg" xmlns:xlink="http://www.w3.org/1999/xlink" x="0px" y="0px"
	 viewBox="0 0 857 94" style="enable-background:new 0 0 857 94;" xml:space="preserve">
<path d="M168.6,30c0,5.8-37.7,10.6-84.3,10.6c-13.4,0-26-0.4-37.2-1.1c0.1,1.3,0.1,2.7,0.1,4.1c0,18.6-7.4,33.8-16.5,33.8
	S14.1,62.2,14.1,43.6c0-2.5,0.1-5.1,0.4-7.6C5.4,34.3,0,32.2,0,30c0-2.4,6.5-4.6,17.3-6.4c3-8.4,7.9-13.8,13.3-13.8
	c4.8,0,9.2,4.2,12.2,11c12.2-0.9,26.4-1.4,41.4-1.4C130.8,19.4,168.6,24.2,168.6,30z"/>
<path d="M167.1,49.3H56.8c-0.8,0-1.5,0.7-1.5,1.5v22.1c0,0.8,0.7,1.5,1.5,1.5h110.3c0.8,0,1.5-0.7,1.5-1.5V50.8
	C168.6,50,167.9,49.3,167.1,49.3z"/>
<path d="M505.2,83.3c9.3,0,16.8-13.8,16.8-30.8s-7.5-30.8-16.8-30.8c-9.3,0-16.8,13.8-16.8,30.8S495.9,83.3,505.2,83.3z"/>
<path d="M581.2,46.9c30.8,0,55.8-5,55.8-11.2c0-6.2-25-11.2-55.8-11.2c-30.8,0-55.8,5-55.8,11.2C525.4,41.9,550.4,46.9,581.2,46.9z"
	/>
<path d="M587.3,84.2c34.2,0,61.9-7.4,61.9-16.6S621.5,51,587.3,51c-34.2,0-61.9,7.4-61.9,16.6S553.1,84.2,587.3,84.2z"/>
<path d="M819.8,86.9H672.6c-2.1,0-4.1-0.8-5.6-2.3c-1.5-1.5-2.3-3.5-2.3-5.6V36.4c0-2.1,0.8-4.1,2.3-5.6c1.5-1.5,3.5-2.3,5.6-2.3h93
	c4,0,8,0.8,11.8,2.3c3.7,1.5,7.1,3.8,10,6.7L824.7,75c1,1,1.7,2.2,1.9,3.6c0.3,1.4,0.1,2.8-0.4,4.1c-0.5,1.3-1.4,2.4-2.6,3.1
	C822.5,86.5,821.2,86.9,819.8,86.9z"/>
<path d="M810.4,19.2c-3.6-3.6-9.4-3.6-13,0c-3.6,3.6-3.6,9.4,0,13l39.1,39.1c3.6,3.6,9.4,3.6,13,0c3.6-3.6,3.6-9.4,0-13L810.4,19.2z
	"/>
<path d="M340.5,44.4v25.5c0,1.4-0.6,2.8-1.6,3.8c-1,1-2.4,1.6-3.8,1.6H193c-0.2,0-0.5-0.1-0.7-0.3c-0.2-0.2-0.3-0.4-0.3-0.6
	c0-0.2,0.1-0.5,0.2-0.7c0.1-0.2,0.4-0.3,0.6-0.4l125.8-20.2c6.3-1.1,8.1-2.3,8-4.7c-0.2-3.8-6.2-4-19-4H183.2
	c-0.5,0-0.9-0.2-1.2-0.5c-0.3-0.3-0.5-0.8-0.5-1.2V19.4c0-0.2,0-0.5,0.1-0.7c0.1-0.2,0.2-0.4,0.4-0.6c0.2-0.2,0.4-0.3,0.6-0.4
	c0.2-0.1,0.4-0.1,0.7-0.1h13.2c0.2,0,0.4,0.1,0.6,0.2c0.2,0.1,0.3,0.3,0.3,0.5s0,0.4,0,0.6c-0.1,0.2-0.2,0.3-0.4,0.4
	c-7.5,4.2-11.7,8.4-10.9,12c1.6,8.5,29.5,10.4,62.3,4.1c15.9-3.1,30-7.4,40.1-12.1c7.9-3.7,16.6-5.7,25.4-5.7c3.5,0,7,0.7,10.3,2
	c3.3,1.3,6.2,3.3,8.7,5.8s4.5,5.4,5.8,8.7C339.8,37.4,340.5,40.9,340.5,44.4z"/>
<path d="M386.9,83.9c-3.6-56.8-22.2-70.8-26.3-35.4c0,0.1-0.1,0.3-0.2,0.4c-0.1,0.1-0.3,0.2-0.4,0.2c-0.1,0-0.3,0-0.4-0.1
	c-0.1-0.1-0.2-0.2-0.2-0.4c-5.9-26.5-8.3-40.9,21-48.5c0.2-0.1,0.5-0.1,0.7,0c0.2,0,0.4,0.1,0.6,0.3c0.2,0.1,0.3,0.3,0.4,0.5
	c0.1,0.2,0.2,0.4,0.2,0.7v4.7c0,1,0.3,1.9,0.9,2.7c0.6,0.8,1.4,1.4,2.3,1.7c47.9,16.8,31.1,40.7,7,74.8c-0.4,0.5-0.9,0.9-1.4,1.1
	c-0.6,0.2-1.2,0.2-1.8,0.1c-0.6-0.2-1.1-0.5-1.5-1C387.2,85.1,387,84.5,386.9,83.9z"/>
<path d="M451.2,44.6h-26.3c-0.4,0-0.7-0.1-1-0.4c-0.3-0.3-0.4-0.6-0.4-1v-6.9c3.1,0,6-1.2,8.1-3.4c2.2-2.2,3.4-5.1,3.4-8.1h16.1
	c0.4,0,0.7,0.1,1,0.4c0.3,0.3,0.4,0.6,0.4,1v17c0,0.4-0.1,0.7-0.4,1C451.9,44.5,451.5,44.6,451.2,44.6z"/>
<path d="M457.4,60.1c17.2,11.3,23.8,31.4,22.7,33S464.2,87,447,75.7c-17.2-11.3-30.3-21.7-29.2-23.4
	C418.8,50.7,440.2,48.9,457.4,60.1z"/>
<g id="letters-hover">
	<path d="M52.5,8H57l-0.2,0.8h-3.6L52.8,11h1.4c0.7,0,1.2,0.1,1.5,0.2c0.3,0.1,0.5,0.3,0.7,0.5c0.2,0.3,0.3,0.6,0.3,1
		c0,0.5-0.1,0.9-0.4,1.3c-0.3,0.4-0.6,0.7-1,0.8c-0.4,0.2-1,0.2-1.9,0.2H51L52.5,8z M52.1,14.2h0.8c0.8,0,1.4,0,1.8-0.1
		c0.4-0.1,0.6-0.3,0.8-0.5c0.2-0.3,0.3-0.5,0.3-0.8c0-0.2-0.1-0.4-0.2-0.6c-0.1-0.2-0.3-0.3-0.5-0.3c-0.2-0.1-0.5-0.1-1-0.1h-1.5
		L52.1,14.2z"/>
	<path d="M208,26h0.9l1.6,4.4L213,26h1l-3.6,5.9c-0.2,0.4-0.4,0.7-0.7,0.8c-0.2,0.2-0.5,0.3-0.7,0.3c-0.1,0-0.4,0-0.8-0.1l-0.2,0
		l0.2-0.8c0.5,0.1,0.7,0.1,0.7,0.1c0.3,0,0.5-0.2,0.8-0.7l0.1-0.2L208,26z"/>
	<path d="M410.2,73.1h0.8l-0.5,3.1c0.2,0,0.4,0,0.6-0.1c0.1-0.1,0.3-0.2,0.5-0.5c0.2-0.2,0.3-0.5,0.5-0.9c0.3-0.6,0.5-1,0.6-1.1
		c0.1-0.2,0.3-0.3,0.5-0.4c0.2-0.1,0.4-0.1,0.5-0.1c0,0,0.2,0,0.4,0l-0.1,0.8c0,0-0.1,0-0.1,0c-0.1,0-0.2,0-0.2,0
		c-0.1,0-0.3,0.1-0.4,0.2c-0.1,0.1-0.2,0.4-0.4,0.7c-0.3,0.7-0.6,1.1-0.8,1.3c-0.2,0.2-0.4,0.4-0.7,0.5c0.4,0.2,0.7,0.7,1,1.6
		L413,80h-0.8l-0.5-1.6c-0.2-0.6-0.4-1.1-0.6-1.3c-0.2-0.2-0.4-0.3-0.7-0.4l-0.6,3.3H409L410.2,73.1z"/>
	<path d="M579,19l1.2-7h1.8c0.3,0,0.6,0,0.7,0c0.3,0.1,0.5,0.1,0.7,0.3c0.2,0.1,0.3,0.3,0.4,0.6c0.1,0.2,0.1,0.5,0.1,0.8
		c0,0.4-0.1,0.7-0.3,1c-0.2,0.3-0.4,0.5-0.8,0.7c0.3,0.1,0.6,0.3,0.7,0.6c0.2,0.2,0.2,0.5,0.2,0.9c0,0.4-0.1,0.8-0.3,1.1
		c-0.2,0.4-0.4,0.6-0.7,0.8c-0.3,0.2-0.6,0.3-1,0.3H579z M580.5,15h1.2c0.6,0,1-0.1,1.2-0.3c0.3-0.2,0.4-0.5,0.4-0.9
		c0-0.2,0-0.4-0.1-0.5c-0.1-0.1-0.2-0.2-0.3-0.3c-0.1-0.1-0.4-0.1-0.7-0.1h-1.2L580.5,15z M579.9,18.2h1.3c0.4,0,0.6,0,0.7,0
		c0.2-0.1,0.4-0.1,0.6-0.3c0.2-0.1,0.3-0.3,0.4-0.5c0.1-0.2,0.1-0.4,0.1-0.6c0-0.3-0.1-0.6-0.3-0.7c-0.2-0.2-0.5-0.3-1-0.3h-1.5
		L579.9,18.2z"/>
	<path d="M731.1,16h0.9l-1.4,7h-0.9L731.1,16z M725.4,16h0.9l-0.6,3h1.3c0.7,0,1.1,0.1,1.4,0.2c0.3,0.1,0.5,0.3,0.7,0.5
		c0.2,0.3,0.3,0.6,0.3,1c0,0.5-0.1,0.9-0.4,1.3c-0.3,0.4-0.6,0.7-0.9,0.8c-0.4,0.2-1,0.2-1.8,0.2H724L725.4,16z M725,22.2h0.8
		c0.8,0,1.3,0,1.6-0.1c0.3-0.1,0.6-0.3,0.8-0.5c0.2-0.3,0.3-0.5,0.3-0.8c0-0.2-0.1-0.4-0.2-0.6c-0.1-0.2-0.3-0.3-0.5-0.3
		c-0.2-0.1-0.5-0.1-0.9-0.1h-1.4L725,22.2z"/>
</g>
</svg>
